src/icons/linkedin.svg

<svg width="32" height="31" viewBox="0 0 32 31" fill="none" xmlns="http://www.w3.org/2000/svg">
<g clip-path="url(#clip0_4_1806)">
<path d="M31.9226 30.9857V30.9844H31.9304V19.6203C31.9304 14.0609 30.7335 9.77832 24.2342 9.77832C21.1097 9.77832 19.013 11.4929 18.157 13.1184H18.0667V10.2973H11.9043V30.9844H18.321V20.7409C18.321 18.0439 18.8323 15.4359 22.1723 15.4359C25.4633 15.4359 25.5124 18.5138 25.5124 20.9139V30.9857H31.9226Z" fill="white"/>
<path d="M1.45703 10.2991H7.88149V30.9862H1.45703V10.2991Z" fill="white"/>
<path d="M4.66525 0C2.61113 0 0.944336 1.66679 0.944336 3.72092C0.944336 5.77504 2.61113 7.47669 4.66525 7.47669C6.71937 7.47669 8.38617 5.77504 8.38617 3.72092C8.38488 1.66679 6.71808 0 4.66525 0V0Z" fill="white"/>
</g>
<defs>
<clipPath id="clip0_4_1806">
<rect width="30.9861" height="30.9861" fill="white" transform="translate(0.944336)"/>
</clipPath>
</defs>
</svg>

<svg xmlns="http://www.w3.org/2000/svg"><path d="M31.923 30.986v-.002h.007V19.62c0-5.56-1.197-9.842-7.696-9.842-3.124 0-5.221 1.715-6.077 3.34h-.09v-2.82h-6.163v20.686h6.417V20.741c0-2.697.511-5.305 3.851-5.305 3.291 0 3.34 3.078 3.34 5.478v10.072h6.41zM1.457 10.3h6.424v20.686H1.457V10.3zM4.665 0a3.722 3.722 0 00-3.72 3.72c0 2.055 1.666 3.757 3.72 3.757 2.054 0 3.721-1.702 3.721-3.756A3.724 3.724 0 004.666 0z"/></svg>
